X:51
M:C|
L:1/8
K:D
|:f|adad feef|adad B2Bf|1 adad feef|dedB A2A:|2
adab afef|dedB A2A||

